Dominus_Dark_Funeral/22/mimes/application-x-deb.svg

<svg xmlns="http://www.w3.org/2000/svg" width="24" height="24" viewBox="0 0 12.7 12.7"><path d="M7.014.502L6.685.54zm-.786.092c-.054-.055-.657.2-.548.036a8.474 8.474 0 0 0-1.534.73 3.908 3.908 0 0 0-1.059.86c-.365.31-.438.821-.749 1.186-.292.31-.438 1.005-.602 1.461.073.42 0 .439.018 1.279a6.027 6.027 0 0 0 2.009 4.712c.858.858 2.045 1.406 3.287 1.333-.402-.146-.913-.091-1.278-.402-.11-.091-.31-.328-.384-.365.183.329-.402-.183-.548-.183.22-.182-.365-.255-.401-.53-.31.129-.402-.602-.494-.456-.09-.146-.639-.694-.401-.73-.256-.22-.274-.548-.475-.914.255.293.2 0 .036-.219-.182-.182-.694-.456-.511-.73a.548.548 0 0 1-.11-.512c-.255-.493-.127-1.095-.091-1.643 0-.347.055-.713.256-1.023.018-.146.347-.438.128-.475A4.639 4.639 0 0 1 3.872 2.84c.092-.073.767-.31.42-.256.074-.274.713-.365.987-.493-.493.128.036-.054.237-.182.091-.146 1.041-.293.512-.128a3.032 3.032 0 0 1 3.47 1.46c.255.348.347.841.438 1.225 0 .438.055.438-.073 1.278.183-.438 0 .42-.091.548-.366.11-.11.584-.53.73-.128.128-.73.548-.42.183A1.461 1.461 0 0 1 8 7.662c-1.15.365-2.43-.73-2.374-1.9-.11.128-.11-.146-.073-.31A1.717 1.717 0 0 1 7.635 3.99c.182-.055.913.602.548.219-.658-.73-1.991-.603-2.466.274-.256.182-.292.548-.457.822-.09.548-.036 1.187.293 1.643.2.402.785.603.913.987-.256-.037-.95-.84-.585-.366.439.457-.182-.073-.31-.255-.31-.366-.055.091.11.219.602.548 1.46.986 2.282.749-.493-.037-1.095.018-1.46-.402.675.22 1.479.31 2.191 0 .457-.22.822-.566 1.169-.438-.055.493.036-.293.183-.384.182.329.09-.11.237-.256.146-.182.274-1.132.256-.456-.146.511.073-.092.018-.274-.037-.329.055-.073.091.11-.091-.238.201-.731.092-.786-.128-.31 0-.493-.201-.84.292.438.054-.274 0-.438-.146.073-.33-.42 0-.33.182-.017.328.658.438.44.164.584-.037-.311-.11-.44-.036-.127-.146-.73.055-.364a3.58 3.58 0 0 0-1.205-1.717c-.11-.128-.439-.658-.439-.238-.255-.11-.456-.474-.803-.31-.292-.091-.566-.238-.84-.329-.402-.183-.384 0-.73-.055-.147.037-.731.11-.275-.018.53-.091-.402-.128.037-.055.146.055-.274.055-.366.037-.273 0-.347 0-.073-.146zm-4.255 2.41v.11c-.256.475.329-.11 0-.11zm-.183.914c-.274.456-.036.548 0 0zm6.85 1.278l-.037.055c0 .402.2.073.036-.055zm2.136.585v.018zm0 .036c-.11.365-.183.767-.365 1.114.182-.329.31-.73.365-1.096zm-2.228.091c-.091.147-.128.402-.329.42.055.165.365-.182.329-.42zm-.329.42c.037-.11.183-.328.128-.292l-.128.146a.292.292 0 0 0 0 .146zm-.475.33a1.114 1.114 0 0 1-.292.036c-.548-.073.22.328.31-.037zm-2.447.036c0 .073.055.164.091.237.256.439.037-.073-.091-.237zm-.164.274c-.073.237.255.456.383.639a7.58 7.58 0 0 0-.365-.64z" fill="#e6e6e6"/></svg>

<?xml version="1.0" encoding="UTF-8" standalone="no"?>
<svg
   xmlns:dc="http://purl.org/dc/elements/1.1/"
   xmlns:cc="http://creativecommons.org/ns#"
   xmlns:rdf="http://www.w3.org/1999/02/22-rdf-syntax-ns#"
   xmlns:svg="http://www.w3.org/2000/svg"
   xmlns="http://www.w3.org/2000/svg"
   xmlns:sodipodi="http://sodipodi.sourceforge.net/DTD/sodipodi-0.dtd"
   xmlns:inkscape="http://www.inkscape.org/namespaces/inkscape"
   width="24"
   height="24"
   viewBox="0 0 12.7 12.7"
   version="1.1"
   id="svg4"
   sodipodi:docname="application-x-deb.svg"
   inkscape:version="0.92.4 (5da689c313, 2019-01-14)">
  <metadata
     id="metadata10">
    <rdf:RDF>
      <cc:Work
         rdf:about="">
        <dc:format>image/svg+xml</dc:format>
        <dc:type
           rdf:resource="http://purl.org/dc/dcmitype/StillImage" />
        <dc:title></dc:title>
      </cc:Work>
    </rdf:RDF>
  </metadata>
  <defs
     id="defs8" />
  <sodipodi:namedview
     pagecolor="#ffffff"
     bordercolor="#666666"
     borderopacity="1"
     objecttolerance="10"
     gridtolerance="10"
     guidetolerance="10"
     inkscape:pageopacity="0"
     inkscape:pageshadow="2"
     inkscape:window-width="1112"
     inkscape:window-height="480"
     id="namedview6"
     showgrid="false"
     inkscape:zoom="9.8333333"
     inkscape:cx="1.0677966"
     inkscape:cy="12"
     inkscape:window-x="0"
     inkscape:window-y="25"
     inkscape:window-maximized="0"
     inkscape:current-layer="svg4" />
  <path
     d="M 7.014,0.502 6.685,0.54 Z M 6.228,0.594 C 6.174,0.539 5.571,0.794 5.68,0.63 A 8.474,8.474 0 0 0 4.146,1.36 3.908,3.908 0 0 0 3.087,2.22 C 2.722,2.53 2.649,3.041 2.338,3.406 2.046,3.716 1.9,4.411 1.736,4.867 c 0.073,0.42 0,0.439 0.018,1.279 a 6.027,6.027 0 0 0 2.009,4.712 C 4.621,11.716 5.808,12.264 7.05,12.191 6.648,12.045 6.137,12.1 5.772,11.789 5.662,11.698 5.462,11.461 5.388,11.424 5.571,11.753 4.986,11.241 4.84,11.241 5.06,11.059 4.475,10.986 4.439,10.711 4.129,10.84 4.037,10.109 3.945,10.255 3.855,10.109 3.306,9.561 3.544,9.525 3.288,9.305 3.27,8.977 3.069,8.611 c 0.255,0.293 0.2,0 0.036,-0.219 C 2.923,8.21 2.411,7.936 2.594,7.662 A 0.548,0.548 0 0 1 2.484,7.15 C 2.229,6.657 2.357,6.055 2.393,5.507 2.393,5.16 2.448,4.794 2.649,4.484 2.667,4.338 2.996,4.046 2.777,4.009 A 4.639,4.639 0 0 1 3.872,2.84 C 3.964,2.767 4.639,2.53 4.292,2.584 4.366,2.31 5.005,2.219 5.279,2.091 4.786,2.219 5.315,2.037 5.516,1.909 5.607,1.763 6.557,1.616 6.028,1.781 a 3.032,3.032 0 0 1 3.47,1.46 c 0.255,0.348 0.347,0.841 0.438,1.225 0,0.438 0.055,0.438 -0.073,1.278 0.183,-0.438 0,0.42 -0.091,0.548 -0.366,0.11 -0.11,0.584 -0.53,0.73 C 9.114,7.15 8.512,7.57 8.822,7.205 A 1.461,1.461 0 0 1 8,7.662 C 6.85,8.027 5.57,6.932 5.626,5.762 5.516,5.89 5.516,5.616 5.553,5.452 A 1.717,1.717 0 0 1 7.635,3.99 C 7.817,3.935 8.548,4.592 8.183,4.209 7.525,3.479 6.192,3.606 5.717,4.483 5.461,4.665 5.425,5.031 5.26,5.305 5.17,5.853 5.224,6.492 5.553,6.948 5.753,7.35 6.338,7.551 6.466,7.935 6.21,7.898 5.516,7.095 5.881,7.569 6.32,8.026 5.699,7.496 5.571,7.314 5.261,6.948 5.516,7.405 5.681,7.533 6.283,8.081 7.141,8.519 7.963,8.282 7.47,8.245 6.868,8.3 6.503,7.88 7.178,8.1 7.982,8.19 8.694,7.88 9.151,7.66 9.516,7.314 9.863,7.442 9.808,7.935 9.899,7.149 10.046,7.058 10.228,7.387 10.136,6.948 10.283,6.802 10.429,6.62 10.557,5.67 10.539,6.346 10.393,6.857 10.612,6.254 10.557,6.072 10.52,5.743 10.612,5.999 10.648,6.182 10.557,5.944 10.849,5.451 10.74,5.396 c -0.128,-0.31 0,-0.493 -0.201,-0.84 0.292,0.438 0.054,-0.274 0,-0.438 -0.146,0.073 -0.33,-0.42 0,-0.33 0.182,-0.017 0.328,0.658 0.438,0.44 0.164,0.584 -0.037,-0.311 -0.11,-0.44 -0.036,-0.127 -0.146,-0.73 0.055,-0.364 A 3.58,3.58 0 0 0 9.717,1.707 C 9.607,1.579 9.278,1.049 9.278,1.469 9.023,1.359 8.822,0.995 8.475,1.159 8.183,1.068 7.909,0.921 7.635,0.83 7.233,0.647 7.251,0.83 6.905,0.775 6.758,0.812 6.174,0.885 6.63,0.757 7.16,0.666 6.228,0.629 6.667,0.702 6.813,0.757 6.393,0.757 6.301,0.739 c -0.273,0 -0.347,0 -0.073,-0.146 z m -4.255,2.41 v 0.11 c -0.256,0.475 0.329,-0.11 0,-0.11 z M 1.79,3.918 c -0.274,0.456 -0.036,0.548 0,0 z M 8.64,5.196 8.603,5.251 c 0,0.402 0.2,0.073 0.036,-0.055 z m 2.136,0.585 v 0.018 z m 0,0.036 c -0.11,0.365 -0.183,0.767 -0.365,1.114 0.182,-0.329 0.31,-0.73 0.365,-1.096 z M 8.548,5.908 C 8.457,6.055 8.42,6.31 8.219,6.328 8.274,6.493 8.584,6.146 8.548,5.908 Z M 8.219,6.328 C 8.256,6.218 8.402,6 8.347,6.036 L 8.219,6.182 a 0.292,0.292 0 0 0 0,0.146 z M 7.744,6.658 A 1.114,1.114 0 0 1 7.452,6.694 C 6.904,6.621 7.672,7.022 7.762,6.657 Z M 5.297,6.694 c 0,0.073 0.055,0.164 0.091,0.237 C 5.644,7.37 5.425,6.858 5.297,6.694 Z M 5.133,6.968 C 5.06,7.205 5.388,7.424 5.516,7.607 A 7.58,7.58 0 0 0 5.151,6.967 Z"
     id="path2"
     inkscape:connector-curvature="0"
     style="fill:#e6e6e6" />
</svg>
